packages/ffe-icons/icons/open/300/sm/swipe_left_alt.svg

<svg xmlns="http://www.w3.org/2000/svg" height="20" viewBox="0 -960 960 960" width="20"><path d="M565.999-298.001q-69.055 0-119.642-44.5-50.588-44.5-60.458-111.5H215.922l48.924 48.925q8.308 8.307 8.5 18.743.192 10.435-8.199 18.493-8.608 8.609-18.493 8.609-9.884 0-18.576-8.693l-89.236-89.506q-5.148-5.164-7.456-10.764-2.308-5.6-2.308-12t2.308-11.949q2.308-5.549 7.056-10.297l89.636-89.636q8.307-8.308 18.743-8.5 10.436-.193 18.41 8.416 8.307 8.058 8.307 18.301 0 10.243-8.286 18.529l-49.33 49.331h169.977q9.87-67 60.403-111.5 50.534-44.5 119.516-44.5 76.031 0 129.106 53.284 53.075 53.284 53.075 128.884t-53.235 128.715q-53.235 53.115-128.765 53.115Zm.045-51.998q54.186 0 92.071-37.93T696-480.045q0-54.186-37.93-92.071t-92.116-37.885q-54.186 0-92.071 37.93-37.884 37.93-37.884 92.116t37.93 92.071q37.93 37.885 92.115 37.885ZM565.999-480Z"/></svg>

<svg xmlns="http://www.w3.org/2000/svg" height="20" viewBox="0 -960 960 960" width="20"><path d="M566-298q-69.06 0-119.64-44.5Q395.77-387 385.9-454H215.92l48.93 48.92q8.3 8.31 8.5 18.75.19 10.43-8.2 18.49-8.61 8.61-18.5 8.61-9.88 0-18.57-8.69l-89.24-89.51q-5.15-5.16-7.45-10.76-2.31-5.6-2.31-12t2.31-11.95q2.3-5.55 7.05-10.3l89.64-89.64q8.31-8.3 18.74-8.5 10.44-.19 18.41 8.42 8.31 8.06 8.31 18.3t-8.29 18.53L215.92-506H385.9q9.87-67 60.4-111.5Q496.84-662 565.82-662q76.03 0 129.1 53.28Q748-555.43 748-479.83t-53.24 128.71Q641.53-298 566-298Zm.04-52q54.19 0 92.08-37.93Q696-425.86 696-480.05q0-54.18-37.93-92.07Q620.14-610 565.95-610q-54.18 0-92.07 37.93Q436-534.14 436-479.95q0 54.18 37.93 92.07Q511.86-350 566.04-350ZM566-480Z"/></svg>
